X:45
T: Wandering Minstrel
M: 6/8
L: 1/8
R: Jig
Z: version taught at a workshop in Ottawa
K: D
B|AFD BAF|Ade fdB|AFA BAG|FAF GFE|
AFD BAF|Ade fdB|AdB AFE|FDC D2 :|
g|~f3 ede|fdB AFA|~B3 AFA|AGF E2g|
~f3 ede|fdB AFA|BdB AFE|FDC D2 :|
e|~f3 afd|gbe gbe|~f3 afd|ceA ceA|
~f3 afd|gbe gbe|~f3 ede|fdc d2 :|
